icon-themes/sifr_svg/cmd/sc_numberformatscientific.svg

<svg viewBox="0 0 16 16" xmlns="http://www.w3.org/2000/svg"><path d="m2 2v12h2 6v-2h-6v-3h4v-2h-4v-3h6v-2h-6zm10 3v2h-2v2h2v2h2v-2h2v-2h-2v-2z" fill="#555753"/></svg>

<svg xmlns="http://www.w3.org/2000/svg" viewBox="0 0 16 16">
<path
   style="fill:#555753;fill-opacity:1"
   d="M 2 2 L 2 14 L 4 14 L 10 14 L 10 12 L 4 12 L 4 9 L 8 9 L 8 7 L 4 7 L 4 4 L 10 4 L 10 2 L 4 2 L 2 2 z M 12 5 L 12 7 L 10 7 L 10 9 L 12 9 L 12 11 L 14 11 L 14 9 L 16 9 L 16 7 L 14 7 L 14 5 L 12 5 z "
   />
</svg>
